!!! OTL: Berkowitz438
!!! Chapter: 1
!!! Section: IV
!!! Page: 109
!!! Mode: 
!!! Encoder: DJB
**kern
*staff1
*I"Piano
=1-
*clefC4
*k[f#c#]
*b:
*M4/4
4r
4r
4r
4f#\
=2
4.e#\
8f#\
4d\
4B\
=3
8A#\L
8B\J
4c#\
4r
4g\
=4
4.f#\
8g\
4e\
4c#\
=5
16d\LL
16c#\
16d\
16e\JJ
4f#\
4r
4d\
=6
4.c#\
8A#\
4B\
4d\
=7
8c#\L
8d\
8c#\
8A#\J
4B\
4g\
=8
[2f#\
8f#\L]
8e\
8c#\
8d\J
=9
!!linebreak:original
2B\
2r
==
*-
